packages/flutter/assets/icons/approval.svg

<?xml version="1.0" encoding="UTF-8"?>
<svg width="24px" height="24px" viewBox="0 0 24 24" version="1.1" xmlns="http://www.w3.org/2000/svg" xmlns:xlink="http://www.w3.org/1999/xlink">
    <title>approval</title>
    <g id="approval" stroke="none" stroke-width="1" fill="none" fill-rule="evenodd">
        <path d="M16.720883,13.782106 C17.5248206,12.4168238 17.9964859,11.0393915 17.9970961,9.69297104 L17.9841412,9.01839971 L17.9673981,8.4710276 C17.9443432,7.88603611 17.9069367,7.4658652 17.8338936,6.97098866 C17.3703051,3.83011731 15.6483615,2.01247276 12.0016256,2 C9.32886582,1.99583039 7.63430915,3.02338837 6.76849992,4.87997539 C6.16763862,6.16842469 6.03650766,7.39103288 6.03650766,9.69275525 C6.03861513,11.2297416 6.64423135,12.758858 7.65355321,14.2446843 C8.07995707,14.872395 8.45530592,15.3327288 8.94683134,15.8767335 C8.78985089,16.8784933 7.28418359,17.9576862 5.69398618,18.0362523 L5.51019866,18.0408156 C3.91496731,18.0408156 2.75070915,19.1946343 2.02456492,21.3731019 C1.94140118,21.6225971 2.0762384,21.8922708 2.32573227,21.975435 C2.57522614,22.0585991 2.84489841,21.9237612 2.92806214,21.674266 C3.5381994,19.8438249 4.39653133,18.9931893 5.51019866,18.9931893 C7.73025957,18.9931893 9.91266432,17.3919938 9.91266432,15.7073034 C9.91266432,15.5882326 9.86805548,15.4734821 9.78763265,15.3856757 C9.25467849,14.803791 8.87533355,14.3484033 8.44134712,13.7095303 C7.52941712,12.3670748 6.99067897,11.0068184 6.9888759,9.69210218 L6.99322892,9.04261422 C7.01881864,7.29284989 7.16493119,6.28324503 7.63162606,5.28249382 C8.33731968,3.76924866 9.6903754,2.94877259 11.9992531,2.95239587 C15.1296446,2.96308151 16.4918845,4.401031 16.8917324,7.11005189 L16.9341418,7.42462859 C16.9897544,7.88395161 17.0149431,8.33261488 17.0316754,9.02650532 L17.0448036,9.70127148 C17.0442056,10.8442537 16.625386,12.0673573 15.9002232,13.2988607 C15.4142588,14.1241467 14.9095887,14.7783 14.3649503,15.3909099 C14.2874516,15.4780805 14.2446419,15.5906637 14.2446419,15.7073034 C14.2446419,17.3862468 16.3969686,18.9931893 18.5699083,18.9931893 C19.6438871,18.9931893 20.4770765,19.8413013 21.0707569,21.6706735 C21.1519365,21.9208213 21.4205295,22.0577967 21.6706759,21.9766166 C21.9208224,21.8954365 22.0577971,21.6268422 21.9766174,21.3766944 C21.2965038,19.2809863 20.220053,18.1312786 18.7484032,18.0459398 L18.5699083,18.0408156 C17.020326,18.0408156 15.4888789,16.9981324 15.2340073,15.992884 L15.2096308,15.872503 C15.7413109,15.2607823 16.2381019,14.6019861 16.720883,13.782106 Z" id="Path-2" fill="#303846"></path>
    </g>
</svg>

<svg xmlns="http://www.w3.org/2000/svg" width="24" height="24" viewBox="0 0 24 24"><path fill-rule="evenodd" d="M16.72 13.782c.805-1.365 1.276-2.743 1.277-4.089l-.013-.675-.017-.547a13.071 13.071 0 0 0-.133-1.5C17.37 3.831 15.648 2.012 12.002 2c-2.673-.004-4.368 1.023-5.234 2.88-.6 1.288-.731 2.511-.731 4.813.002 1.537.607 3.066 1.617 4.552.426.627.801 1.088 1.293 1.632-.157 1.001-1.663 2.08-3.253 2.16l-.184.004c-1.595 0-2.76 1.154-3.485 3.332a.476.476 0 0 0 .903.301c.61-1.83 1.469-2.68 2.582-2.68 2.22 0 4.403-1.602 4.403-3.287a.476.476 0 0 0-.125-.321A13.673 13.673 0 0 1 8.44 13.71c-.912-1.343-1.45-2.703-1.452-4.018l.004-.65c.026-1.75.172-2.759.639-3.76.705-1.513 2.058-2.333 4.367-2.33 3.13.011 4.493 1.449 4.893 4.158l.042.315c.056.459.08.908.098 1.602l.013.674c0 1.143-.42 2.366-1.145 3.598-.486.825-.99 1.48-1.535 2.092a.476.476 0 0 0-.12.316c0 1.68 2.152 3.286 4.325 3.286 1.074 0 1.907.848 2.5 2.678a.476.476 0 1 0 .907-.294c-.68-2.096-1.757-3.246-3.229-3.331l-.178-.005c-1.55 0-3.081-1.043-3.336-2.048l-.024-.12a13.734 13.734 0 0 0 1.51-2.09z"/></svg>
